X:1
T:Andre, LM
T:Andre, LM
T:William Batchelder Bradbury (1816-1868)
T:Public Domain Courtesy of the Cyber Hymnal™
C:William Batchelder Bradbury (1816-1868)
Z:Public Domain
Z:Courtesy of the Cyber Hymnal™
%%score ( 1 2 ) ( 3 4 )
L:1/8
Q:1/4=113
M:4/4
K:G
V:1 treble 
V:2 treble 
V:3 bass 
V:4 bass 
V:1
 [DG]2 | [DG]2 [DB]2 [EG]2 [GB]2 | (BA) (GF) [DG]2 [DG]2 | [GB]2 [Fd]2 [GB]2 [Gd]2 | %4
 (dc) (BA) !fermata![GB]2 [DG]2 | [EG]2 [EG]2 [DG]3 [EG] | [FA]2 [FA]2 [GB]2 [Gd]2 | %7
 [Ge]2 [Ge]2 [Gd]3 [DB] | [FA]2 [Fd]2 [DB]2 [DB]2 | [Ec]2 [Gc]2 [GB]3 [DG] | [DF]2 [FA]2 [DG]2 |] %11
V:2
 x2 | x8 | E2 D2 x4 | x8 | E2 F2 x4 | x8 | x8 | x8 | x8 | x8 | x6 |] %11
V:3
 [G,B,]2 | [F,B,]2 [E,G,]2 [D,B,]2 [B,,D]2 | (G,C) (B,A,) [G,B,]2 B,2 | %3
 [E,B,]2 [D,B,]2 [E,B,]2 [G,,B,]2 | [C,G,]2 [D,D]2 !fermata![G,D]2 [G,B,]2 | %5
 [C,C]2 [C,C]2 [G,B,]3 [E,B,] | [D,D]2 [C,D]2 [B,,D]2 [G,,B,]2 | [C,C]2 [E,C]2 [G,B,]3 G, | %8
 [D,D]2 [D,A,]2 G,2 [G,,G,]2 | [C,G,]2 [E,C]2 [G,D]3 [G,B,] | [D,A,]2 [D,D]2 [G,B,]2 |] %11
V:4
 x2 | x8 | C,2 D,2 x (G,F,) x | x8 | x8 | x8 | x8 | x8 | x8 | x8 | x6 |] %11

